X:1
T:Title
%%score { 1 | 2 }
L:1/8
Q:1/4=100
M:4/4
K:E
V:1 treble nm="Grand Piano"
V:2 bass 
V:1
 [GB]2 [EG]>[FA] [GB]2 E>F | ED D>=D ^D2 z2 | D2 D>E [DF]2 z2 | E2 E>F G2 z2 | %4
w: Lucy~Rider~Meyer * * * * *||||
 [GB]2 [EG]>[FA] [GB]2 E>F | ED D>=D ^D2 z2 | D2 D>E [A,DF]2 [B,EG]2 | [A,DF]4 [G,E]2 z2 | %8
w: ||||
 [Ec]2 [CEA][Ec] [Ee]2 [Ed][Ec] | cB B>^A B2 [B,GB]2 | [DGB]<[DFA] [DFA]<[D^EG] [DFA]2 [DAc]2 | %11
w: |||
 [EAc]<[EGB] [B,GB]<[C=G^A] [B,^GB]2 z2 | [Ec]2 [CEA][Ec] [Ee]2 [Ed][Ec] | cB B>^A B2 z2 | %14
w: |||
 B2 F>B c2 F2 | c4 [DB]2 z2 | [GB]2 [EG]>[FA] [GB]2 E>F | ED D>=D ^D2 z2 | D2 D>E [DF]2 z2 | %19
w: |||||
 E2 E>F G2 z2 | [GB]2 [EG]>[FA] [GB]2 E>F | ED D>=D ^D2 z2 | D2 D>E [A,DF]2 [B,EG]2 | %23
w: ||||
[M:8/4] [A,DF]4 .[G,E]4 z8 |] %24
w: |
V:2
 [E,E]2 [E,B,]>[E,B,] [E,E]2 [E,G,B,]>[E,A,B,] | %1
 [B,,G,B,][B,,F,B,] [B,,F,B,]>[B,,^E,B,] [B,,F,B,]2 z2 | %2
 [B,,F,B,]2 [B,,F,B,]>[B,,G,B,] [B,,A,]2 z2 | [E,G,]2 [E,G,]>[E,A,D] [E,B,E]2 z2 | %4
 [E,E]2 [E,B,]>[E,B,] [E,E]2 [E,G,B,]>[E,A,B,] | %5
 [B,,G,B,][B,,F,B,] [B,,F,B,]>[B,,^E,B,] [B,,F,B,]2 z2 | [B,,F,B,]2 [B,,F,B,]>[B,,G,B,] B,,2 B,,2 | %7
 B,,4 E,2 z2 | [A,,A,]2 A,,[A,,A,] [A,,C]2 [A,,B,][A,,A,] | %9
 [E,A,E][E,G,E] [E,G,E]>[E,F,E] [E,G,E]2 E,2 | B,,<B,, B,,<B,, B,,2 B,,2 | E,<E, E,<E, E,2 z2 | %12
 [A,,A,]2 A,,[A,,A,] [A,,C]2 [A,,B,][A,,A,] | [E,A,E][E,G,E] [E,G,E]>[E,=G,E] [E,^G,E]2 z2 | %14
 [F,B,D]2 [F,B,D]>[F,B,D] [F,^A,E]2 [F,A,E]2 | [F,^A,E]4 [B,,B,]2 z2 | %16
 [E,E]2 [E,B,]>[E,B,] [E,E]2 [E,G,B,]>[E,A,B,] | %17
 [B,,G,B,][B,,F,B,] [B,,F,B,]>[B,,^E,B,] [B,,F,B,]2 z2 | %18
 [B,,F,B,]2 [B,,F,B,]>[B,,G,B,] [B,,A,]2 z2 | [E,G,]2 [E,G,]>[E,A,D] [E,B,E]2 z2 | %20
 [E,E]2 [E,B,]>[E,B,] [E,E]2 [E,G,B,]>[E,A,B,] | %21
 [B,,G,B,][B,,F,B,] [B,,F,B,]>[B,,^E,B,] [B,,F,B,]2 z2 | [B,,F,B,]2 [B,,F,B,]>[B,,G,B,] B,,2 B,,2 | %23
[M:8/4] B,,4 .E,4 z8 |] %24

